X:1
%
T:Ranting Roaring Highlandman, The
M:2/4
L:1/8
R:Reel
B:Aird – Selection of Scotch, English, Irish and Foreign Airs, vol. 1 (1782, No. 110, p. 39)
Z:AK/Fiddler’s Companion
K:Amix
e|A/A/A ed|cdec|(d/c/B/A/) GB|gBBa|
A/A/A (ed)|cdec|dB^gB|aA A:|
|:g|aefd|cdec|(d/c/B/A/) GB|gBBg|
|1 aefd|cdec|dBgB|aA A:|
|2 afge|fdec|dB^g(f/g/)|aA A|]

